icons/lightbulb-outline.svg

<svg xmlns="http://www.w3.org/2000/svg" width="24" height="24" viewBox="0 0 24 24">
    <path fill="#3A3A47" fill-rule="evenodd" d="M11.997 2C15.803 2 19 4.658 19 8.5c0 1.705-.53 3.141-1.634 5.086-1.333 2.348-1.373 2.43-1.373 2.937 0 3.742-1.035 5.468-3.996 5.468C9.043 21.99 8 20.243 8 16.523c0-.532-.065-.664-1.369-2.955C5.526 11.628 5 10.206 5 8.5 5 4.655 8.192 2 11.997 2zm1.991 15h-3.983c.05 2.366.513 2.99 1.992 2.99 1.489 0 1.942-.606 1.991-2.99zm-1.99-13C9.222 4 7 5.85 7 8.5c0 1.275.422 2.415 1.369 4.078.108.19.484.837.55.952.215.376.372.665.51.945.089.182.168.357.237.526h4.67c.067-.163.144-.331.23-.506.137-.277.294-.564.51-.942.05-.085.437-.754.55-.954C16.575 10.93 17 9.776 17 8.5 17 5.852 14.771 4 11.997 4zm.001 1a4 4 0 0 1 4 4s0 1-.996 1C14.006 10 14 9 14 9c0-1.125-.92-2.001-2.002-2.001 0 0-.999 0-.999-.999s1-1 1-1z"/>
</svg>

<svg width="24" height="24" viewBox="0 0 24 24" fill="none" xmlns="http://www.w3.org/2000/svg">
<path fill-rule="evenodd" clip-rule="evenodd" d="M14.336 15C14.403 14.837 14.48 14.67 14.566 14.495C14.703 14.218 14.86 13.931 15.076 13.553C15.126 13.468 15.513 12.799 15.626 12.599C16.575 10.93 17 9.776 17 8.5C17 5.852 14.771 4 11.997 4C9.223 4 7 5.85 7 8.5C7 9.775 7.422 10.915 8.369 12.578C8.477 12.768 8.853 13.415 8.919 13.53C9.134 13.906 9.291 14.195 9.429 14.475C9.518 14.656 9.597 14.831 9.666 15H14.336ZM13.988 17H10.005C10.055 19.365 10.517 19.99 11.997 19.99C13.486 19.99 13.939 19.384 13.988 17ZM19 8.5C19 10.205 18.47 11.641 17.366 13.586C16.033 15.934 15.993 16.016 15.993 16.523C15.993 20.265 14.958 21.991 11.997 21.991C9.043 21.99 8 20.243 8 16.523C8 15.991 7.935 15.859 6.631 13.568C5.526 11.628 5 10.206 5 8.5C5 4.655 8.192 2 11.997 2C15.803 2 19 4.658 19 8.5ZM15.003 10C14.006 10 14 9 14 9C14 7.875 13.08 6.999 11.998 6.999C11.998 6.999 10.999 6.999 10.999 6C10.999 5.001 11.999 5 11.999 5C13.0599 5 14.0773 5.42143 14.8274 6.17157C15.5776 6.92172 15.999 7.93913 15.999 9C15.999 9 15.999 10 15.002 10H15.003Z" fill="#3A3A47"/>
</svg>
